X:6256
T:Gillian's Apples
M:6/8
L:1/8
Q:180
C:Trad
R:jig
K:G
g3 B2 A|GBA GBd|efe edB|dBA AGE|!
DGG GBA|GBd g2 a|bag fgf|[1ed^c def:|[2ed^c d2 e|!
faa faa|faa agf|gbb gbb|gbb bag|!
faa faa|faa afa|bag fgf|[1ed^c d2 e:|[2ed^c def||!
